X:647
T:Reel 647
M:4/4
K:Dmaj
L:1/8
FE|DB, (3B,A,B, GABc|dBAF GEFE|DB, (3B,A,B, GABc|dBAF G2AG|FB, (3B,A,B, GABc|dBAF GEEd|BAGF EGFeed|eABc d2|AF|G2BG F2AF|EDB,D A,B, (3B,CD |EABc dcdB|AFGE FGE2|BABc dBcd|Beec dcAc|BdAF GEFD|EFGE D2|
